src/22/panel/system-devices-panel-alert.svg

<svg xmlns="http://www.w3.org/2000/svg" width="22" height="22" version="1.1">
 <defs>
  <style id="current-color-scheme" type="text/css">
   .ColorScheme-Text { color:#dfdfdf; } .ColorScheme-Highlight { color:#4285f4; }
  </style>
 </defs>
 <path style="fill:currentColor" class="ColorScheme-Highlight" d="M 11 4 C 10.446 4 10 4.446 10 5 L 10 10.003906 C 10 10.557906 10.446 11.003906 11 11.003906 C 11.554 11.003906 12 10.557906 12 10.003906 L 12 5 C 12 4.446 11.554 4 11 4 z M 14.037109 5.9882812 A 1.0001 1.0001 0 0 0 13.84375 6 A 1.0001 1.0001 0 0 0 13.40625 7.8125 C 15.18475 9.1429 15.54905 11.62775 14.21875 13.40625 C 12.88835 15.18475 10.37225 15.51785 8.59375 14.1875 C 6.81525 12.85715 6.48215 10.37225 7.8125 8.59375 C 8.02906 8.30424 8.2764 8.06479 8.5625 7.84375 A 1.0032039 1.0032039 0 0 0 7.34375 6.25 C 6.9146 6.58156 6.51229 6.97204 6.1875 7.40625 C 4.2097 10.05025 4.76225 13.8348 7.40625 15.8125 C 10.05025 17.7903 13.8348 17.23775 15.8125 14.59375 C 17.7903 11.94975 17.23775 8.1652 14.59375 6.1875 A 1.0001 1.0001 0 0 0 14.037109 5.9882812 z"/>
</svg>

<svg xmlns="http://www.w3.org/2000/svg" width="22" height="22"><defs><style id="current-color-scheme" type="text/css">.ColorScheme-Text{color:#dfdfdf;}.ColorScheme-Highlight{color:#5294e2;}</style></defs><defs><style id="current-color-scheme" type="text/css"></style></defs><path d="M11 4c-.554 0-1 .446-1 1v5.004c0 .554.446 1 1 1s1-.446 1-1V5c0-.554-.446-1-1-1zm3.037 1.988a1 1 0 0 0-.193.012 1 1 0 0 0-.438 1.813 3.98 3.98 0 0 1 .813 5.593c-1.33 1.779-3.847 2.112-5.625.781-1.779-1.33-2.112-3.815-.781-5.593.216-.29.463-.53.75-.75a1.003 1.003 0 0 0-1.22-1.594c-.428.332-.83.722-1.155 1.156-1.978 2.644-1.426 6.429 1.218 8.407 2.644 1.977 6.429 1.425 8.407-1.22 1.977-2.643 1.425-6.428-1.22-8.405a1 1 0 0 0-.556-.2z" fill="currentColor" class="ColorScheme-Highlight"/></svg>
